src/components/00-materials/images-raw/Electric Car.svg

<svg width="96" height="96" viewBox="0 0 96 96" fill="none" xmlns="http://www.w3.org/2000/svg">
<path d="M87 67.82V57.68C86.9962 56.5695 86.6058 55.495 85.896 54.641C85.1861 53.787 84.2011 53.2068 83.11 53L69.73 49.52L61.05 41.65C56 37 52.45 36 48 36H27.93C25.32 36 22.85 38.16 21.16 40.16L12.5 50.45C12.1988 50.7822 11.8396 51.0566 11.44 51.26C11.004 51.5011 10.6405 51.8545 10.3872 52.2836C10.134 52.7127 10.0003 53.2018 10 53.7V67.82M30 73H61H30ZM28.24 68H62.76H28.24Z" stroke="#00008F" stroke-width="2" stroke-linecap="round" stroke-linejoin="round"/>
<path d="M22 81C26.4183 81 30 77.4183 30 73C30 68.5817 26.4183 65 22 65C17.5817 65 14 68.5817 14 73C14 77.4183 17.5817 81 22 81Z" stroke="#00008F" stroke-width="2" stroke-linecap="round" stroke-linejoin="round"/>
<path d="M22 76C23.6569 76 25 74.6569 25 73C25 71.3431 23.6569 70 22 70C20.3431 70 19 71.3431 19 73C19 74.6569 20.3431 76 22 76Z" stroke="#00008F" stroke-width="2" stroke-linecap="round" stroke-linejoin="round"/>
<path d="M69 81C73.4183 81 77 77.4183 77 73C77 68.5817 73.4183 65 69 65C64.5817 65 61 68.5817 61 73C61 77.4183 64.5817 81 69 81Z" stroke="#00008F" stroke-width="2" stroke-linecap="round" stroke-linejoin="round"/>
<path d="M69 76C70.6569 76 72 74.6569 72 73C72 71.3431 70.6569 70 69 70C67.3431 70 66 71.3431 66 73C66 74.6569 67.3431 76 69 76Z" stroke="#00008F" stroke-width="2" stroke-linecap="round" stroke-linejoin="round"/>
<path d="M77 73H86.5C87.163 73 87.7989 72.7366 88.2678 72.2678C88.7366 71.7989 89 71.163 89 70.5C89 69.837 88.7366 69.2011 88.2678 68.7322C87.7989 68.2634 87.163 68 86.5 68H75.24M14 73H10.5C9.83696 73 9.20107 72.7366 8.73223 72.2678C8.26339 71.7989 8 71.163 8 70.5C8 69.837 8.26339 69.2011 8.73223 68.7322C9.20107 68.2634 9.83696 68 10.5 68H15.76M87 60C85.0968 59.9251 83.3 59.1021 82 57.71C80.6529 56.0103 79.6354 54.0737 79 52M42 68V41M48 56H46M10 58C15.6 58 17 51 11.87 51M16 46C13.8783 46 11.8434 45.1571 10.3431 43.6569C8.84285 42.1566 8 40.1217 8 38C8 35.8783 8.84285 33.8434 10.3431 32.3431C11.8434 30.8429 13.8783 30 16 30H37.45C38.6567 30 39.814 29.5206 40.6673 28.6673C41.5206 27.814 42 26.6567 42 25.45V23M42 23C40.6739 23 39.4021 22.4732 38.4645 21.5355C38.0002 21.0712 37.6319 20.52 37.3806 19.9134C37.1293 19.3068 37 18.6566 37 18V16H47V18C47 18.6566 46.8707 19.3068 46.6194 19.9134C46.3681 20.52 45.9998 21.0712 45.5355 21.5355C45.0712 21.9998 44.52 22.3681 43.9134 22.6194C43.3068 22.8707 42.6566 23 42 23ZM39 11V16M45 11V16M22 51L29.51 42.66C29.9788 42.1377 30.5524 41.72 31.1933 41.434C31.8342 41.148 32.5282 41.0001 33.23 41H48C51.2357 40.9985 54.3556 42.2037 56.75 44.38L64 51H22Z" stroke="#00008F" stroke-width="2" stroke-linecap="round" stroke-linejoin="round"/>
</svg>

<svg width="96" height="96" viewBox="0 0 96 96" fill="none" xmlns="http://www.w3.org/2000/svg"><path d="M87 67.82V57.68A4.78 4.78 0 0083.11 53l-13.38-3.48-8.68-7.87C56 37 52.45 36 48 36H27.93c-2.61 0-5.08 2.16-6.77 4.16L12.5 50.45a3.69 3.69 0 01-1.06.81A2.79 2.79 0 0010 53.7v14.12M30 73h31-31zm-1.76-5h34.52-34.52z" stroke="#00008F" stroke-width="2" stroke-linecap="round" stroke-linejoin="round"/><path d="M22 81a8 8 0 100-16 8 8 0 000 16z" stroke="#00008F" stroke-width="2" stroke-linecap="round" stroke-linejoin="round"/><path d="M22 76a3 3 0 100-6 3 3 0 000 6zM69 81a8 8 0 100-16 8 8 0 000 16z" stroke="#00008F" stroke-width="2" stroke-linecap="round" stroke-linejoin="round"/><path d="M69 76a3 3 0 100-6 3 3 0 000 6zM77 73h9.5a2.5 2.5 0 000-5H75.24M14 73h-3.5a2.5 2.5 0 010-5h5.26M87 60a7.23 7.23 0 01-5-2.29A17.4 17.4 0 0179 52M42 68V41m6 15h-2m-36 2c5.6 0 7-7 1.87-7M16 46a8 8 0 010-16h21.45A4.55 4.55 0 0042 25.45V23m0 0a5 5 0 01-5-5v-2h10v2a5 5 0 01-5 5zm-3-12v5m6-5v5M22 51l7.51-8.34A5 5 0 0133.23 41H48a13 13 0 018.75 3.38L64 51H22z" stroke="#00008F" stroke-width="2" stroke-linecap="round" stroke-linejoin="round"/></svg>
